packages/orbit-components/src/icons/svg/trip.svg

<!--character:99:550:682-->
<svg width="24" height="24" viewBox="0 0 24 24" xmlns="http://www.w3.org/2000/svg"><path d="M12 2C8.741068 2 5.84869 3.577387 4.021484 6H4v.027344C2.749953 7.696694 2 9.760385 2 12c0 5.511003 4.488997 10 10 10s10-4.488997 10-10S17.511003 2 12 2zm3.66373 3.516623C16.573172 5.516623 20.11385 8.575617 20 12c-.069364 2.086321-.799413 3.978318-2.101562 5.400391C16.596289 18.822464 17.495193 16.536672 16 16c-.368735-.015525-.640288-.186588-.814657-.51319-.17437-.326601-.236151-.98333-.185343-1.970187C15 12.757828 14.584447 12 13.521617 12H9.752673c-.444288 0-.676-.656424-.554252-1.295554.081167-.426087.34836-.660902.801579-.704446.552 0 1-.448 1-1 .060303-.673363.231415-1.152698.513334-1.438005.281919-.285307.79429-.45793 1.537112-.517867C14.332107 6.956242 15 6.956242 15 5.851242c0-.180359.07637-.307709.66373-.334619zM4.68239 10.283871c.628267 0 1.21213 1.868821 1.612244 2.510085.400113.641264 2.199785 1.473054 2.444279 1.799045C8.901907 14.810328 8.988937 15.279328 9 16c0 1.201164.694732 1.59291 1.774968 1.780415 1.080236.187504 1.023827 2.224457.225032 2.151226C7.045772 19.441154 4 16.090654 4 12c0-.617812.054121-1.716129.682389-1.716129z"/></svg>

<!--character:99:550:682-->
  <svg width="24" height="24" viewBox="0 0 24 24" >
<path   d="M12 2C8.74107 2 5.84869 3.57739 4.02148 6H4V6.02734C2.74995 7.69669 2 9.76039 2 12C2 17.511 6.489 22 12 22C17.511 22 22 17.511 22 12C22 6.489 17.511 2 12 2ZM15.6637 5.51662C16.5732 5.51662 20.1139 8.57561 20 12C19.9306 14.0863 19.2006 15.9783 17.8985 17.4004C17.212 18.15 17.1372 17.8693 17.001 17.3576C16.8787 16.8986 16.707 16.2538 16 16C16 16 15.4469 15.9767 15.1854 15.4868C14.9238 14.9969 15 13.5166 15 13.5166C15 12.7578 14.5845 12 13.5216 12H9.75268C9.3084 12 9.07668 11.3436 9.19843 10.7044C9.32018 10.0653 10 9.99999 10 9.99999C10.552 9.99999 11 9.55199 11 8.99999C11 8.99999 11.0905 7.98995 11.5133 7.56199C11.9362 7.13403 13.0505 7.04412 13.0505 7.04412L13.1976 7.03417C14.3832 6.95456 15 6.91314 15 5.85124C15 5.67088 15.0764 5.54353 15.6637 5.51662ZM5.89658 11.9864C5.54653 11.2135 5.1255 10.2839 4.68239 10.2839C4.05412 10.2839 4 11.3822 4 12C4 16.0907 7.04577 19.4412 11 19.9317C11.7988 20.0049 11.8552 17.9679 10.775 17.7804C9.69473 17.5929 9 17.2012 9 16C9 16 8.98341 14.919 8.73891 14.593C8.64106 14.4625 8.29408 14.251 7.88741 14.0032C7.27802 13.6317 6.53461 13.1786 6.29463 12.794C6.17672 12.605 6.04285 12.3094 5.89658 11.9864Z" />
</svg>
